configs/network-logos/via-dark.svg

<svg width="41" height="24" viewBox="0 0 41 24" fill="none" xmlns="http://www.w3.org/2000/svg">
<g clip-path="url(#clip0_11274_6128)">
<path fill-rule="evenodd" clip-rule="evenodd" d="M20.6074 5.92593C22.2544 5.92593 23.5896 4.59936 23.5896 2.96296C23.5896 1.32656 22.2544 0 20.6074 0C18.9604 0 17.6252 1.32656 17.6252 2.96296C17.6252 4.59936 18.9604 5.92593 20.6074 5.92593ZM30.6575 24.0001C32.5053 24.0001 34.1101 23.1843 35.3396 21.9766V23.5259H40.5883V8.65179H35.3396V10.1437C34.0756 8.94605 32.4443 8.17783 30.6575 8.17783C27.0039 8.17783 23.9569 10.9006 23.2614 14.5166V8.65179H13.1218L9.51333 16.1481L5.96447 8.65179H0L7.66434 23.5259H11.243L18.0127 10.637V23.5259H23.2614V17.6613C23.9569 21.2772 27.0039 24.0001 30.6575 24.0001ZM32.059 19.4963C30.1813 19.4963 28.6592 17.984 28.6592 16.1185C28.6592 14.253 30.1813 12.7408 32.059 12.7408C33.9366 12.7408 35.4587 14.253 35.4587 16.1185C35.4587 17.984 33.9366 19.4963 32.059 19.4963Z" fill="white"/>
</g>
<defs>
<clipPath id="clip0_11274_6128">
<rect width="41" height="24.0001" fill="white"/>
</clipPath>
</defs>
</svg>

<svg xmlns="http://www.w3.org/2000/svg" fill="none" viewBox="0 0 41 24">
  <g clip-path="url(#via-dark_svg__a)">
    <path fill="#fff" fill-rule="evenodd" d="M20.607 5.926a2.973 2.973 0 0 0 2.983-2.963A2.973 2.973 0 0 0 20.607 0a2.973 2.973 0 0 0-2.982 2.963 2.973 2.973 0 0 0 2.982 2.963ZM30.657 24c1.848 0 3.453-.816 4.683-2.023v1.549h5.248V8.652H35.34v1.492c-1.264-1.198-2.896-1.966-4.683-1.966-3.653 0-6.7 2.723-7.396 6.339V8.652h-10.14l-3.608 7.496-3.549-7.496H0l7.664 14.874h3.579l6.77-12.889v12.889h5.248V17.66c.696 3.616 3.743 6.34 7.396 6.34Zm1.402-4.504c-1.878 0-3.4-1.512-3.4-3.377 0-1.866 1.522-3.378 3.4-3.378s3.4 1.512 3.4 3.378c0 1.865-1.522 3.377-3.4 3.377Z" clip-rule="evenodd"/>
  </g>
  <defs>
    <clipPath id="via-dark_svg__a">
      <path fill="#fff" d="M0 0h41v24H0z"/>
    </clipPath>
  </defs>
</svg>
